logos/progress.svg

<?xml version="1.0" encoding="UTF-8"?>
<svg width="256px" height="277px" viewBox="0 0 256 277" version="1.1" xmlns="http://www.w3.org/2000/svg" xmlns:xlink="http://www.w3.org/1999/xlink" preserveAspectRatio="xMidYMid">
    <g>
        <path d="M63.0169512,260.486819 L2.76878549,223.491685 L63.0169512,187.62086 L63.0169512,260.486819 Z M93.8462294,276.77889 L93.8462294,172.754406 L0,115.90552 L65.3199394,77.3743388 L156.861014,133.326337 L156.861014,237.856283 L93.8462294,276.77889 Z M184.778518,263.985715 L184.778518,119.229375 L57.5162107,41.8610902 L128.239398,0 L256,74.0487631 L256,221.170234 L184.778518,263.985715 Z" fill="#5CE500"></path>
    </g>
</svg>

<svg width="256" height="277" xmlns="http://www.w3.org/2000/svg" preserveAspectRatio="xMidYMid">
	<path d="M63.017 260.487 2.769 223.492l60.248-35.871v72.866Zm30.83 16.292V172.754L0 115.906l65.32-38.532 91.541 55.952v104.53L93.846 276.78Zm90.932-12.793V119.229L57.516 41.861 128.24 0 256 74.049V221.17l-71.221 42.816Z" fill="#5CE500"/>
</svg>
